X:59
T:S-M Hornpipe
C:Dave Roberts
Z:Anahata (anahata@treewind.co.uk)
M:3/2
L:1/8
K:D
"A"c2 cd c2 BA "Em"G4 | "D"F2FG ADFA "G"B2B2 |\
"C"=c2cd c2BA "G"G4 | "D"ADFA "Bm"G2F2 "Em"E4 :|
|: "E"^G>FGA B2AB "C"=c2c2 |"D"F>EFG AFGA "G"B2B2 |\
"A"c3d c2BA "Em"B2E2 | "D"ADFA "Bm"G2F2 "Em"E4 :|
